64x64/places/folder-palebrown-tar.svg

<svg xmlns="http://www.w3.org/2000/svg" width="64" height="64" version="1"><rect style="opacity:.2" width="56" height="36" x="4" y="22" rx="2.8" ry="2.8"/><path style="fill:#bea389" d="M4 46.2C4 47.751 5.249 49 6.8 49h50.4c1.551 0 2.8-1.249 2.8-2.8V15.8c0-1.551-1.249-2.8-2.8-2.8H32c-4.2 0-5.6-6-9.8-6H6.8A2.794 2.794 0 0 0 4 9.8"/><rect style="opacity:.2" width="56" height="36" x="4" y="20" rx="2.8" ry="2.8"/><rect style="fill:#f4f4f7" width="48" height="22" x="8" y="16" rx="2.8" ry="2.8"/><rect style="fill:#d1bfae" width="56" height="36" x="4" y="21" rx="2.8" ry="2.8"/><path style="opacity:.1;fill:#f4f4f7" d="M6.8 7C5.25 7 4 8.25 4 9.8v1.001A2.795 2.795 0 0 1 6.8 8H22.2c4.2 0 5.601 6 9.801 6h25.199A2.796 2.796 0 0 1 60 16.801v-1A2.796 2.796 0 0 0 57.199 13H32c-4.2 0-5.601-6-9.801-6z"/><path style="fill:#a38d7b" d="M32 23v2h2v-2zm0 2h-2v2h2zm0 2v2h2v-2zm0 2h-2v2h2zm0 2v2c1.104 0 2-1 2-2zM32 33c-2.21 0-4 1.8-4 4v8c0 2.2 1.79 4 4 4s4-1.8 4-4v-8c0-2.2-1.79-4-4-4zm0 2c1.104 0 2 .8 2 2 0 1-.896 2-2 2s-2-1-2-2c0-1.2.896-2 2-2zm0 6c1.104 0 2 .8 2 2v2c0 1-.896 2-2 2s-2-1-2-2v-2c0-1.2.896-2 2-2z"/></svg>

<svg xmlns="http://www.w3.org/2000/svg" width="64" height="64" version="1">
 <rect style="opacity:0.2" width="56" height="36" x="4" y="22" rx="2.8" ry="2.8"/>
 <path style="fill:#bea389" d="M 4,46.2 C 4,47.751 5.2488,49 6.8,49 H 57.2 C 58.751,49 60,47.751 60,46.2 V 15.8 C 60,14.249 58.751,13 57.2,13 H 32 C 27.8,13 26.4,7 22.2,7 H 6.8 C 5.2488,7 4,8.2488 4,9.8"/>
 <rect style="opacity:0.2" width="56" height="36" x="4" y="20" rx="2.8" ry="2.8"/>
 <rect style="fill:#f4f4f7" width="48" height="22" x="8" y="16" rx="2.8" ry="2.8"/>
 <rect style="fill:#d1bfae" width="56" height="36" x="4" y="21" rx="2.8" ry="2.8"/>
 <path style="opacity:0.1;fill:#f4f4f7" d="M 6.8008,7 C 5.2496,7 4,8.2496 4,9.8008 V 10.801 C 4,9.2496 5.2496,8 6.8008,8 H 22.199 C 26.399,8 27.8,14 32,14 H 57.199 C 58.75,14 60,15.25 60,16.801 V 15.801 C 60,14.25 58.75,13 57.199,13 H 32 C 27.8,13 26.399,7 22.199,7 Z"/>
 <g>
  <path style="fill:#a38d7b" d="M 32,23 V 25 H 34 V 23 Z M 32,25 H 30 V 27 H 32 Z M 32,27 V 29 H 34 V 27 Z M 32,29 H 30 V 31 H 32 Z M 32,31 V 33 C 33.104,33 34,32 34,31 Z"/>
  <path style="fill:#a38d7b" d="M 32,33 C 29.79,33 28,34.8 28,37 V 45 C 28,47.2 29.79,49 32,49 34.21,49 36,47.2 36,45 V 37 C 36,34.8 34.21,33 32,33 Z M 32,35 C 33.104,35 34,35.8 34,37 34,38 33.104,39 32,39 30.896,39 30,38 30,37 30,35.8 30.896,35 32,35 Z M 32,41 C 33.104,41 34,41.8 34,43 V 45 C 34,46 33.104,47 32,47 30.896,47 30,46 30,45 V 43 C 30,41.8 30.896,41 32,41 Z"/>
 </g>
</svg>
